X: 1
T: Middies Brae
T: 8x32R 2C (Minnie Banninger, RSCDS Bk 43)
P: Middies Brae
C: Ian Duncan
C: arr. T. Traub 7-3-2012
R: Reel
K: A
M: 4/4
L: 1/8
|: ed | "A"c2 cB A2 ce|"D" aAdf "A"e2 fg|"D"aAdf "A"eAce|"Bm"fedc "E"B2 ed|"F#"c2 cB "Bm"A2 ce|
"D"aAdf "E"e2 fg|"D"aAdf "A"eAce| "E"BdcB "A"A2 ed :||:  fg| "A"a2 ed ceag|"D"f2 df "A"e2fg|
"D"aAdf "A"eAce|"Bm"fedc "E"B2 fg|"F#"a2 ed "Bm"ceag|"D"f2 df "A"e2 fg|"D"aAdf "A"eAce | "E"BdcB "A"A2 :|

